X:1
T:Title
%%score ( 1 2 ) { 3 | 4 }
L:1/8
M:3/4
K:Ab
V:1 treble nm="Grand Piano, Soprano"
V:2 treble 
V:3 bass nm="Choir Pad, Galilee (Holborn), LM"
V:4 bass 
V:1
 [CE]2 [CE]2 [C=E]2 | [DF]4 [DA]2 | [DG]4 [DB]2 | [CA]6 | [Ec]2 [Fc]2 [_Gc]2 | c2 B2 [DF]2 | %6
w: By~Anonymous,~1912 * *||||||
 [=DG]4 [DA]2 | [EG]6 | [=EG]2 [EG]2 [EB]2 | [FA]4 [F=A]2 | [FB]4 [Fc]2 | [Fd]6 | %12
w: ||||||
 [Fd]2 [Fc]2 [FB]2 | [EA]4 [=DA]2 | [EA]4 [EG]2 | [EA]6- | [EA]2 z2 z2 |] %17
w: |||||
V:2
 x6 | x6 | x6 | x6 | x6 | F4 z2 | x6 | x6 | x6 | x6 | x6 | x6 | x6 | x6 | x6 | x6 | x6 |] %17
V:3
 A,2 A,2 A,2 | A,4 A,2 | B,4 G,2 | A,6 | A,2 A,2 A,2 | D4 B,2 | B,4 B,2 | B,6 | C2 C2 C2 | C4 C2 | %10
 B,4 =A,2 | B,6 | F2 E2 D2 | C4 _C2 | C4 D2 | C6- | C2 z2 z2 |] %17
V:4
 z6 | F,4 F,2 | E,4 E,2 | A,,6 | z2 F,2 E,2 | D,4 D,C, | B,,4 B,,2 | E,6 | C,2 C,2 C,2 | F,4 E,2 | %10
 D,4 C,2 | B,,6 | B,,2 C,2 D,2 | E,4 =E,2 | E,4 E,2 | A,,6- | A,,2 z2 z2 |] %17

